icons/4_Outdated/ecloud.svg

<svg width="1024" height="1024" viewBox="0 0 1024 1024" fill="none" xmlns="http://www.w3.org/2000/svg">
<g clip-path="url(#clip0_2_2073)">
<path d="M512 1024C794.77 1024 1024 794.77 1024 512C1024 229.23 794.77 0 512 0C229.23 0 0 229.23 0 512C0 794.77 229.23 1024 512 1024Z" fill="#FF837D"/>
<path d="M256 512.09C256.19 653.4 370.69 767.9 512 768.09C524.827 768.09 537.129 762.994 546.199 753.924C555.269 744.854 560.365 732.552 560.365 719.725C560.365 706.898 555.269 694.596 546.199 685.526C537.129 676.456 524.827 671.36 512 671.36C424.16 671.36 352.73 599.93 352.73 512.09C352.73 424.25 424.16 352.81 512 352.81C582.92 352.81 643.25 399.46 663.75 463.72H512C499.173 463.72 486.871 468.816 477.801 477.886C468.731 486.956 463.635 499.258 463.635 512.085C463.635 524.912 468.731 537.214 477.801 546.284C486.871 555.354 499.173 560.45 512 560.45H719.64C732.46 560.431 744.75 555.33 753.815 546.265C762.88 537.2 767.981 524.91 768 512.09C767.81 370.76 653.33 256.2 512 255.92C370.84 256.09 256 370.92 256 512.09Z" fill="white"/>
</g>
<defs>
<clipPath id="clip0_2_2073">
<rect width="1024" height="1024" fill="white"/>
</clipPath>
</defs>
</svg>

<svg xmlns="http://www.w3.org/2000/svg" width="1024" height="1024" fill="none">
   <g clip-path="url(#a)">
      <path fill="#FF837D" d="M512 1024c282.77 0 512-229.23 512-512S794.77 0 512 0 0 229.23 0 512s229.23 512 512 512Z"/>
      <path fill="#fff" d="M256 512.09c.19 141.31 114.69 255.81 256 256a48.366 48.366 0 0 0 0-96.73c-87.84 0-159.27-71.43-159.27-159.27S424.16 352.81 512 352.81c70.92 0 131.25 46.65 151.75 110.91H512a48.366 48.366 0 0 0 0 96.73h207.64A48.433 48.433 0 0 0 768 512.09c-.19-141.33-114.67-255.89-256-256.17-141.16.17-256 115-256 256.17Z"/>
   </g>
   <defs>
      <clipPath id="a">
         <path fill="#fff" d="M0 0h1024v1024H0z"/>
      </clipPath>
   </defs>
</svg>
